assets/img/LogoGreen.svg

<svg width="204" height="72" viewBox="0 0 204 72" fill="none" xmlns="http://www.w3.org/2000/svg">
<path d="M0 14.2901C0 6.39788 6.4882 0 14.4918 0H189.508C197.512 0 204 6.39788 204 14.2901V57.7099C204 65.6021 197.512 72 189.508 72H14.4918C6.4882 72 0 65.6021 0 57.7099V14.2901Z" fill="#8CFF31"/>
<path d="M20.8 24.3038C20.8 20.1596 23.9574 16.8 27.8521 16.8V16.8C31.7468 16.8 34.9042 20.1596 34.9042 24.3038V42.8783C34.9042 47.0225 31.7468 50.382 27.8521 50.382V50.382C23.9574 50.382 20.8 47.0225 20.8 42.8783V24.3038Z" fill="#07021A"/>
<path d="M60.7603 24.8439C64.4586 28.1485 66.3077 29.8008 66.8244 31.8426C67.1142 32.9878 67.1142 34.1943 66.8244 35.3395C66.3077 37.3813 64.4586 39.0336 60.7603 42.3382V42.3382C54.5748 47.8653 51.482 50.6289 48.8494 50.3647C47.4 50.2193 46.0422 49.546 45.0055 48.4585C43.1224 46.4831 43.1224 42.1858 43.1224 33.591V33.591C43.1224 24.9963 43.1224 20.699 45.0055 18.7236C46.0422 17.6361 47.4 16.9628 48.8494 16.8173C51.482 16.5532 54.5748 19.3168 60.7603 24.8439V24.8439Z" fill="#07021A"/>
<path d="M92.2694 24.8439C95.9676 28.1485 97.8168 29.8008 98.3334 31.8426C98.6232 32.9878 98.6232 34.1943 98.3334 35.3395C97.8168 37.3813 95.9676 39.0336 92.2694 42.3382V42.3382C86.0838 47.8653 82.991 50.6289 80.3584 50.3647C78.909 50.2193 77.5513 49.546 76.5146 48.4585C74.6315 46.4831 74.6315 42.1858 74.6315 33.591V33.591C74.6315 24.9963 74.6315 20.699 76.5146 18.7236C77.5513 17.6361 78.909 16.9628 80.3584 16.8173C82.991 16.5532 86.0838 19.3168 92.2694 24.8439V24.8439Z" fill="#07021A"/>
<path d="M131.084 49.9902L142.223 49.4342V57.177C142.223 58.9885 140.155 59.8834 138.967 58.5858L131.084 49.9902Z" fill="#07021A"/>
<path d="M106.14 29.7214C106.14 25.1985 106.14 22.937 106.968 21.2095C107.695 19.69 108.856 18.4545 110.284 17.6803C111.908 16.8 114.033 16.8 118.284 16.8H140.509C144.759 16.8 146.885 16.8 148.508 17.6803C149.936 18.4545 151.097 19.69 151.825 21.2095C152.652 22.937 152.652 25.1985 152.652 29.7214V37.4607C152.652 41.9836 152.652 44.2451 151.825 45.9726C151.097 47.4921 149.936 48.7276 148.508 49.5018C146.885 50.382 144.759 50.382 140.509 50.382H118.284C114.033 50.382 111.908 50.382 110.284 49.5018C108.856 48.7276 107.695 47.4921 106.968 45.9726C106.14 44.2451 106.14 41.9836 106.14 37.4607V29.7214Z" fill="#07021A"/>
<path d="M113.567 35.68C113.116 31.8099 112.89 29.8748 113.586 28.3631C113.909 27.6614 114.365 27.0387 114.926 26.534C116.134 25.4467 117.952 25.2067 121.589 24.7267L134.856 22.9759C138.52 22.4923 140.353 22.2505 141.779 22.9997C142.441 23.3474 143.028 23.8379 143.501 24.4402C144.523 25.7382 144.735 27.6898 145.159 31.5929V31.5929C145.576 35.4378 145.785 37.3603 145.086 38.8598C144.761 39.5559 144.305 40.1733 143.746 40.6734C142.542 41.7507 140.737 41.9889 137.127 42.4653L123.861 44.2161C120.224 44.6961 118.405 44.9361 116.984 44.1956C116.325 43.852 115.74 43.3667 115.265 42.7702C114.244 41.4851 114.018 39.5501 113.567 35.68V35.68Z" fill="#FFFDEF"/>
<path d="M178.519 24.8439C182.217 28.1485 184.066 29.8008 184.583 31.8426C184.872 32.9878 184.872 34.1943 184.583 35.3395C184.066 37.3813 182.217 39.0336 178.519 42.3382V42.3382C172.333 47.8653 169.24 50.6289 166.608 50.3647C165.158 50.2193 163.801 49.546 162.764 48.4585C160.881 46.4831 160.881 42.1858 160.881 33.591V33.591C160.881 24.9963 160.881 20.699 162.764 18.7236C163.801 17.6361 165.158 16.9628 166.608 16.8173C169.24 16.5532 172.333 19.3168 178.519 24.8439V24.8439Z" fill="#07021A"/>
</svg>

<svg xmlns="http://www.w3.org/2000/svg" width="204" height="72" fill="none" viewBox="0 0 204 72"><path fill="#8CFF31" d="M0 14.29C0 6.398 6.488 0 14.492 0h175.016C197.512 0 204 6.398 204 14.29v43.42c0 7.892-6.488 14.29-14.492 14.29H14.492C6.488 72 0 65.602 0 57.71V14.29Z"/><path fill="#07021A" d="M20.8 24.304c0-4.144 3.157-7.504 7.052-7.504 3.895 0 7.052 3.36 7.052 7.504v18.574c0 4.145-3.157 7.504-7.052 7.504-3.895 0-7.052-3.36-7.052-7.504V24.304ZM60.76 24.844c3.699 3.304 5.548 4.957 6.064 6.999a7.141 7.141 0 0 1 0 3.497c-.516 2.041-2.365 3.694-6.064 6.998-6.185 5.527-9.278 8.29-11.91 8.027-1.45-.146-2.808-.819-3.845-1.907-1.883-1.975-1.883-6.272-1.883-14.867s0-12.892 1.883-14.867c1.037-1.088 2.395-1.761 3.844-1.907 2.633-.264 5.726 2.5 11.911 8.027ZM92.27 24.844c3.698 3.304 5.547 4.957 6.063 6.999a7.141 7.141 0 0 1 0 3.497c-.516 2.041-2.365 3.694-6.064 6.998-6.185 5.527-9.278 8.29-11.91 8.027-1.45-.146-2.808-.819-3.844-1.907-1.883-1.975-1.883-6.272-1.883-14.867s0-12.892 1.883-14.867c1.036-1.088 2.394-1.761 3.843-1.907 2.633-.264 5.726 2.5 11.911 8.027ZM131.084 49.99l11.139-.556v7.743c0 1.812-2.068 2.706-3.256 1.409l-7.883-8.596Z"/><path fill="#07021A" d="M106.14 29.721c0-4.523 0-6.784.828-8.512.727-1.519 1.888-2.755 3.316-3.529 1.624-.88 3.749-.88 8-.88h22.225c4.25 0 6.376 0 7.999.88 1.428.774 2.589 2.01 3.317 3.53.827 1.727.827 3.988.827 8.511v7.74c0 4.523 0 6.784-.827 8.512-.728 1.52-1.889 2.755-3.317 3.529-1.623.88-3.749.88-7.999.88h-22.225c-4.251 0-6.376 0-8-.88-1.428-.774-2.589-2.01-3.316-3.53-.828-1.727-.828-3.988-.828-8.511v-7.74Z"/><path fill="#FFFDEF" d="M113.567 35.68c-.451-3.87-.677-5.805.019-7.317a5.614 5.614 0 0 1 1.34-1.829c1.208-1.087 3.026-1.327 6.663-1.807l13.267-1.751c3.664-.484 5.497-.726 6.923.024a5.367 5.367 0 0 1 1.722 1.44c1.022 1.298 1.234 3.25 1.658 7.153.417 3.845.626 5.767-.073 7.267a5.62 5.62 0 0 1-1.34 1.813c-1.204 1.078-3.009 1.316-6.619 1.792l-13.266 1.751c-3.637.48-5.456.72-6.877-.02a5.384 5.384 0 0 1-1.719-1.426c-1.021-1.285-1.247-3.22-1.698-7.09Z"/><path fill="#07021A" d="M178.519 24.844c3.698 3.304 5.547 4.957 6.064 6.999a7.16 7.16 0 0 1 0 3.497c-.517 2.041-2.366 3.694-6.064 6.998-6.186 5.527-9.279 8.29-11.911 8.027-1.45-.146-2.807-.819-3.844-1.907-1.883-1.975-1.883-6.272-1.883-14.867s0-12.892 1.883-14.867c1.037-1.088 2.394-1.761 3.844-1.907 2.632-.264 5.725 2.5 11.911 8.027Z"/></svg>
